24x24/actions/tool-spray.svg

<?xml version="1.0" encoding="UTF-8" standalone="no"?>
<!-- Created with Inkscape (http://www.inkscape.org/) -->

<svg
   xmlns:dc="http://purl.org/dc/elements/1.1/"
   xmlns:cc="http://creativecommons.org/ns#"
   xmlns:rdf="http://www.w3.org/1999/02/22-rdf-syntax-ns#"
   xmlns:svg="http://www.w3.org/2000/svg"
   xmlns="http://www.w3.org/2000/svg"
   xmlns:xlink="http://www.w3.org/1999/xlink"
   xmlns:sodipodi="http://sodipodi.sourceforge.net/DTD/sodipodi-0.dtd"
   xmlns:inkscape="http://www.inkscape.org/namespaces/inkscape"
   width="24"
   height="24"
   viewBox="0 0 6.3499998 6.3499998"
   version="1.1"
   id="svg8"
   inkscape:version="0.92.5 (2060ec1f9f, 2020-04-08)"
   sodipodi:docname="tool-spray.svg">
  <defs
     id="defs2">
    <linearGradient
       inkscape:collect="always"
       id="linearGradient866">
      <stop
         style="stop-color:#5280a9;stop-opacity:1"
         offset="0"
         id="stop862" />
      <stop
         id="stop904"
         offset="0.19792859"
         style="stop-color:#729ec5;stop-opacity:1" />
      <stop
         style="stop-color:#74abda;stop-opacity:1"
         offset="0.46089393"
         id="stop906" />
      <stop
         style="stop-color:#3b7cb4;stop-opacity:1"
         offset="1"
         id="stop864" />
    </linearGradient>
    <linearGradient
       inkscape:collect="always"
       id="linearGradient840">
      <stop
         style="stop-color:#3c6ecc;stop-opacity:1"
         offset="0"
         id="stop836" />
      <stop
         style="stop-color:#3c66cc;stop-opacity:0"
         offset="1"
         id="stop838" />
    </linearGradient>
    <linearGradient
       inkscape:collect="always"
       xlink:href="#linearGradient840"
       id="linearGradient842"
       x1="3.632261"
       y1="280.96915"
       x2="-6.5558176"
       y2="278.62289"
       gradientUnits="userSpaceOnUse" />
    <linearGradient
       inkscape:collect="always"
       xlink:href="#linearGradient866"
       id="linearGradient902"
       gradientUnits="userSpaceOnUse"
       x1="30.908152"
       y1="49.512581"
       x2="55.535156"
       y2="50.574219" />
  </defs>
  <sodipodi:namedview
     id="base"
     pagecolor="#ffffff"
     bordercolor="#666666"
     borderopacity="1.0"
     inkscape:pageopacity="0.0"
     inkscape:pageshadow="2"
     inkscape:zoom="3.959798"
     inkscape:cx="7.1044025"
     inkscape:cy="37.896452"
     inkscape:document-units="mm"
     inkscape:current-layer="layer1"
     showgrid="false"
     inkscape:window-width="1920"
     inkscape:window-height="1025"
     inkscape:window-x="0"
     inkscape:window-y="30"
     inkscape:window-maximized="1"
     units="px" />
  <metadata
     id="metadata5">
    <rdf:RDF>
      <cc:Work
         rdf:about="">
        <dc:format>image/svg+xml</dc:format>
        <dc:type
           rdf:resource="http://purl.org/dc/dcmitype/StillImage" />
        <dc:title></dc:title>
      </cc:Work>
    </rdf:RDF>
  </metadata>
  <g
     inkscape:label="Capa 1"
     inkscape:groupmode="layer"
     id="layer1"
     transform="translate(0,-290.65)">
    <g
       id="g832"
       transform="matrix(0.29119438,0.06702503,-0.06702503,0.29119438,19.969,210.47652)">
      <rect
         ry="0"
         rx="0"
         y="280.26224"
         x="10.288836"
         height="1.7038574"
         width="1.4866874"
         id="rect818"
         style="opacity:1;fill:#555555;fill-opacity:1;stroke:none;stroke-width:0.26458332;stroke-linecap:round;stroke-linejoin:round;stroke-miterlimit:4;stroke-dasharray:none;stroke-opacity:1" />
      <path
         sodipodi:nodetypes="ssccccssssccccsss"
         inkscape:connector-curvature="0"
         id="rect815"
         transform="matrix(0.26458333,0,0,0.26458333,0,273)"
         d="m 30.535156,30.529297 c -0.989286,0 -1.785156,0.797818 -1.785156,1.787109 v 4.552735 L 32.142578,41.423828 28.75,45.976562 v 20.851563 c -0.731493,0.285335 -1.25,0.991294 -1.25,1.826172 0,1.088214 0.876629,1.964844 1.964844,1.964844 h 24.107422 c 1.088214,0 1.96289,-0.87663 1.96289,-1.964844 0,-0.692014 -0.354764,-1.294829 -0.892578,-1.644531 V 45.976562 L 51.25,41.423828 54.642578,36.869141 v -4.552735 c 0,-0.989291 -0.795869,-1.787109 -1.785156,-1.787109 z"
         style="opacity:1;fill:url(#linearGradient902);fill-opacity:1;stroke:none;stroke-width:0.99999994;stroke-linecap:round;stroke-linejoin:round;stroke-miterlimit:4;stroke-dasharray:none;stroke-opacity:1" />
      <path
         style="opacity:1;fill:#68a5bc;fill-opacity:1;stroke:none;stroke-width:1.34943783;stroke-linecap:round;stroke-linejoin:round;stroke-miterlimit:4;stroke-dasharray:none;stroke-opacity:1"
         d="m 57.128906,13.322266 c -1.309356,-0.03324 -2.498987,0.853507 -2.804687,2.18164 l -0.345703,1.50586 a 2.857143,2.857143 0 0 1 1.736328,2.626953 2.857143,2.857143 0 0 1 -2.857422,2.857422 2.857143,2.857143 0 0 1 -0.140625,-0.0059 l -0.380859,1.650391 c -0.349372,1.517867 0.591508,3.019769 2.109374,3.36914 l 9.714844,2.236329 c 1.517867,0.349371 3.021722,-0.591509 3.371094,-2.109375 L 69.517578,19 C 69.86695,17.482133 68.92607,15.978278 67.408203,15.628906 l -9.712891,-2.234375 c -0.189733,-0.04367 -0.379355,-0.06752 -0.566406,-0.07226 z"
         transform="matrix(0.19107312,-0.04397984,0.04397984,0.19107312,-1.5579814,277.60115)"
         id="rect820"
         inkscape:connector-curvature="0" />
    </g>
    <path
       sodipodi:type="star"
       style="opacity:1;fill:url(#linearGradient842);fill-opacity:1;stroke:none;stroke-width:0.26458332;stroke-linecap:round;stroke-linejoin:round;stroke-miterlimit:4;stroke-dasharray:none;stroke-opacity:1"
       id="path834"
       sodipodi:sides="3"
       sodipodi:cx="-3.1655507"
       sodipodi:cy="279.89658"
       sodipodi:r1="7.8545246"
       sodipodi:r2="3.9272623"
       sodipodi:arg1="0"
       sodipodi:arg2="1.0471976"
       inkscape:flatsided="true"
       inkscape:rounded="0"
       inkscape:randomized="0"
       d="m 4.6889739,279.89658 -11.7817869,6.80221 0,-13.60443 z"
       inkscape:transform-center-x="-0.43481045"
       transform="matrix(0.22143182,0,0,0.15606567,2.9282633,248.69193)"
       inkscape:transform-center-y="5.0328501e-06" />
  </g>
</svg>

<?xml version="1.0" encoding="UTF-8" standalone="no"?>
<!-- Created with Inkscape (http://www.inkscape.org/) -->

<svg
   xmlns:dc="http://purl.org/dc/elements/1.1/"
   xmlns:cc="http://creativecommons.org/ns#"
   xmlns:rdf="http://www.w3.org/1999/02/22-rdf-syntax-ns#"
   xmlns:svg="http://www.w3.org/2000/svg"
   xmlns="http://www.w3.org/2000/svg"
   xmlns:xlink="http://www.w3.org/1999/xlink"
   xmlns:sodipodi="http://sodipodi.sourceforge.net/DTD/sodipodi-0.dtd"
   xmlns:inkscape="http://www.inkscape.org/namespaces/inkscape"
   width="24mm"
   height="24mm"
   viewBox="0 0 24 24"
   version="1.1"
   id="svg8"
   inkscape:version="0.92.5 (2060ec1f9f, 2020-04-08)"
   sodipodi:docname="dibujo.svg">
  <defs
     id="defs2">
    <linearGradient
       inkscape:collect="always"
       id="linearGradient866">
      <stop
         style="stop-color:#5280a9;stop-opacity:1"
         offset="0"
         id="stop862" />
      <stop
         id="stop904"
         offset="0.19792859"
         style="stop-color:#729ec5;stop-opacity:1" />
      <stop
         style="stop-color:#74abda;stop-opacity:1"
         offset="0.46089393"
         id="stop906" />
      <stop
         style="stop-color:#3b7cb4;stop-opacity:1"
         offset="1"
         id="stop864" />
    </linearGradient>
    <linearGradient
       inkscape:collect="always"
       id="linearGradient840">
      <stop
         style="stop-color:#3c6ecc;stop-opacity:1"
         offset="0"
         id="stop836" />
      <stop
         style="stop-color:#3c66cc;stop-opacity:0"
         offset="1"
         id="stop838" />
    </linearGradient>
    <linearGradient
       inkscape:collect="always"
       xlink:href="#linearGradient840"
       id="linearGradient842"
       x1="3.632261"
       y1="280.96915"
       x2="-6.5558176"
       y2="278.62289"
       gradientUnits="userSpaceOnUse" />
    <linearGradient
       inkscape:collect="always"
       xlink:href="#linearGradient866"
       id="linearGradient902"
       gradientUnits="userSpaceOnUse"
       x1="30.908152"
       y1="49.512581"
       x2="55.535156"
       y2="50.574219" />
  </defs>
  <sodipodi:namedview
     id="base"
     pagecolor="#ffffff"
     bordercolor="#666666"
     borderopacity="1.0"
     inkscape:pageopacity="0.0"
     inkscape:pageshadow="2"
     inkscape:zoom="3.959798"
     inkscape:cx="49.40454"
     inkscape:cy="37.896452"
     inkscape:document-units="mm"
     inkscape:current-layer="layer1"
     showgrid="false"
     inkscape:window-width="1920"
     inkscape:window-height="1019"
     inkscape:window-x="0"
     inkscape:window-y="30"
     inkscape:window-maximized="1" />
  <metadata
     id="metadata5">
    <rdf:RDF>
      <cc:Work
         rdf:about="">
        <dc:format>image/svg+xml</dc:format>
        <dc:type
           rdf:resource="http://purl.org/dc/dcmitype/StillImage" />
        <dc:title></dc:title>
      </cc:Work>
    </rdf:RDF>
  </metadata>
  <g
     inkscape:label="Capa 1"
     inkscape:groupmode="layer"
     id="layer1"
     transform="translate(0,-273)">
    <g
       id="g832"
       transform="matrix(1.3150521,0.30268925,-0.30268925,1.3150521,86.075712,-91.588397)">
      <rect
         ry="0"
         rx="0"
         y="280.26224"
         x="10.288836"
         height="1.7038574"
         width="1.4866874"
         id="rect818"
         style="opacity:1;fill:#555555;fill-opacity:1;stroke:none;stroke-width:0.26458332;stroke-linecap:round;stroke-linejoin:round;stroke-miterlimit:4;stroke-dasharray:none;stroke-opacity:1" />
      <path
         sodipodi:nodetypes="ssccccssssccccsss"
         inkscape:connector-curvature="0"
         id="rect815"
         transform="matrix(0.26458333,0,0,0.26458333,0,273)"
         d="m 30.535156,30.529297 c -0.989286,0 -1.785156,0.797818 -1.785156,1.787109 v 4.552735 L 32.142578,41.423828 28.75,45.976562 v 20.851563 c -0.731493,0.285335 -1.25,0.991294 -1.25,1.826172 0,1.088214 0.876629,1.964844 1.964844,1.964844 h 24.107422 c 1.088214,0 1.96289,-0.87663 1.96289,-1.964844 0,-0.692014 -0.354764,-1.294829 -0.892578,-1.644531 V 45.976562 L 51.25,41.423828 54.642578,36.869141 v -4.552735 c 0,-0.989291 -0.795869,-1.787109 -1.785156,-1.787109 z"
         style="opacity:1;fill:url(#linearGradient902);fill-opacity:1;stroke:none;stroke-width:0.99999994;stroke-linecap:round;stroke-linejoin:round;stroke-miterlimit:4;stroke-dasharray:none;stroke-opacity:1" />
      <path
         style="opacity:1;fill:#68a5bc;fill-opacity:1;stroke:none;stroke-width:1.34943783;stroke-linecap:round;stroke-linejoin:round;stroke-miterlimit:4;stroke-dasharray:none;stroke-opacity:1"
         d="M 57.128906 13.322266 C 55.81955 13.289022 54.629919 14.175773 54.324219 15.503906 L 53.978516 17.009766 A 2.857143 2.857143 0 0 1 55.714844 19.636719 A 2.857143 2.857143 0 0 1 52.857422 22.494141 A 2.857143 2.857143 0 0 1 52.716797 22.488281 L 52.335938 24.138672 C 51.986566 25.656539 52.927446 27.158441 54.445312 27.507812 L 64.160156 29.744141 C 65.678023 30.093512 67.181878 29.152632 67.53125 27.634766 L 69.517578 19 C 69.86695 17.482133 68.92607 15.978278 67.408203 15.628906 L 57.695312 13.394531 C 57.505579 13.35086 57.315957 13.327015 57.128906 13.322266 z "
         transform="matrix(0.19107312,-0.04397984,0.04397984,0.19107312,-1.5579814,277.60115)"
         id="rect820" />
    </g>
    <path
       sodipodi:type="star"
       style="opacity:1;fill:url(#linearGradient842);fill-opacity:1;stroke:none;stroke-width:0.26458332;stroke-linecap:round;stroke-linejoin:round;stroke-miterlimit:4;stroke-dasharray:none;stroke-opacity:1"
       id="path834"
       sodipodi:sides="3"
       sodipodi:cx="-3.1655507"
       sodipodi:cy="279.89658"
       sodipodi:r1="7.8545246"
       sodipodi:r2="3.9272623"
       sodipodi:arg1="0"
       sodipodi:arg2="1.0471976"
       inkscape:flatsided="true"
       inkscape:rounded="0"
       inkscape:randomized="0"
       d="m 4.6889739,279.89658 -11.7817869,6.80221 0,-13.60443 z"
       inkscape:transform-center-x="-1.9636312"
       transform="matrix(1,0,0,0.70480237,9.1186756,80.994785)"
       inkscape:transform-center-y="1.5263422e-06" />
  </g>
</svg>
